dist/images/icons/basket.svg

<svg width="20" height="20" viewBox="0 0 20 20" fill="none" xmlns="http://www.w3.org/2000/svg">
<path d="M0.713142 1.42859H2.1973C2.4107 1.42729 2.6176 1.50203 2.781 1.63943C2.94441 1.77684 3.05366 1.96795 3.08922 2.17859L3.56729 5.10001V5.14287L4.99437 13.7143C5.02773 13.8781 5.1174 14.0249 5.24778 14.1293C5.37816 14.2338 5.54098 14.2891 5.70791 14.2857H17.1245C17.2875 14.2905 17.4472 14.2392 17.5771 14.1404C17.7069 14.0417 17.799 13.9013 17.8381 13.7429L19.9787 5.17144C20.0051 5.06449 20.0065 4.95285 19.9827 4.84527C19.9589 4.73769 19.9106 4.63708 19.8415 4.55131C19.7724 4.46554 19.6844 4.39693 19.5844 4.35086C19.4844 4.30479 19.3752 4.28249 19.2651 4.28573H4.88734L4.49489 1.95001C4.40655 1.40438 4.12661 0.908203 3.70543 0.550742C3.28425 0.193282 2.74948 -0.00200271 2.1973 1.54876e-05H0.713142C0.523899 1.54876e-05 0.342408 0.0752703 0.208594 0.209225C0.0747794 0.343179 -0.000396729 0.52486 -0.000396729 0.714301C-0.000396729 0.903741 0.0747794 1.08542 0.208594 1.21938C0.342408 1.35333 0.523899 1.42859 0.713142 1.42859ZM18.3518 5.7143L16.568 12.8571H6.31442L5.12281 5.7143H18.3518ZM15.6974 15.7143C15.2741 15.7143 14.8602 15.84 14.5082 16.0754C14.1562 16.3109 13.8818 16.6456 13.7198 17.0371C13.5578 17.4287 13.5154 17.8595 13.598 18.2752C13.6806 18.6909 13.8844 19.0727 14.1838 19.3724C14.4832 19.6721 14.8646 19.8761 15.2798 19.9588C15.6951 20.0415 16.1255 19.9991 16.5166 19.8369C16.9078 19.6747 17.2421 19.4 17.4773 19.0476C17.7125 18.6953 17.8381 18.281 17.8381 17.8571C17.8381 17.2888 17.6125 16.7438 17.2111 16.3419C16.8096 15.9401 16.2652 15.7143 15.6974 15.7143ZM15.6974 18.5714C15.5563 18.5714 15.4184 18.5295 15.301 18.4511C15.1837 18.3726 15.0922 18.261 15.0382 18.1305C14.9842 18 14.9701 17.8564 14.9976 17.7178C15.0251 17.5792 15.0931 17.452 15.1929 17.3521C15.2927 17.2522 15.4198 17.1841 15.5582 17.1566C15.6967 17.129 15.8401 17.1432 15.9705 17.1972C16.1009 17.2513 16.2123 17.3428 16.2907 17.4603C16.3691 17.5778 16.411 17.7159 16.411 17.8571C16.411 18.0466 16.3358 18.2283 16.202 18.3622C16.0682 18.4962 15.8867 18.5714 15.6974 18.5714ZM4.99437 17.8571C4.99437 18.281 5.11992 18.6953 5.35513 19.0476C5.59034 19.4 5.92466 19.6747 6.31581 19.8369C6.70695 19.9991 7.13736 20.0415 7.5526 19.9588C7.96784 19.8761 8.34926 19.6721 8.64863 19.3724C8.948 19.0727 9.15187 18.6909 9.23447 18.2752C9.31707 17.8595 9.27467 17.4287 9.11266 17.0371C8.95064 16.6456 8.67627 16.3109 8.32425 16.0754C7.97223 15.84 7.55836 15.7143 7.13499 15.7143C6.56726 15.7143 6.02279 15.9401 5.62134 16.3419C5.2199 16.7438 4.99437 17.2888 4.99437 17.8571ZM7.84852 17.8571C7.84852 17.9984 7.80668 18.1365 7.72827 18.254C7.64987 18.3714 7.53843 18.463 7.40805 18.5171C7.27766 18.5711 7.13419 18.5853 6.99578 18.5577C6.85737 18.5301 6.73023 18.4621 6.63044 18.3622C6.53065 18.2623 6.46269 18.1351 6.43516 17.9965C6.40763 17.8579 6.42176 17.7143 6.47576 17.5838C6.52977 17.4533 6.62122 17.3417 6.73856 17.2632C6.85591 17.1847 6.99386 17.1429 7.13499 17.1429C7.32423 17.1429 7.50572 17.2181 7.63953 17.3521C7.77335 17.486 7.84852 17.6677 7.84852 17.8571Z" fill="#2B2A29"/>
</svg>

<svg width="20" height="20" fill="none" xmlns="http://www.w3.org/2000/svg"><path d="M.713 1.429h1.484a.898.898 0 01.892.75L3.567 5.1v.043l1.427 8.571a.714.714 0 00.714.572h11.417a.713.713 0 00.713-.543l2.14-8.572a.716.716 0 00-.713-.885H4.887L4.495 1.95A2.322 2.322 0 002.197 0H.713a.713.713 0 000 1.429zm17.639 4.285l-1.784 7.143H6.314L5.123 5.714h13.229zm-2.655 10a2.14 2.14 0 00-2.099 2.561 2.143 2.143 0 002.919 1.562 2.141 2.141 0 001.321-1.98 2.144 2.144 0 00-2.14-2.143zm0 2.857a.714.714 0 110-1.427.714.714 0 010 1.427zm-10.703-.714a2.144 2.144 0 002.559 2.102 2.14 2.14 0 001.681-1.684 2.145 2.145 0 00-2.099-2.56 2.14 2.14 0 00-2.14 2.142zm2.855 0a.715.715 0 01-1.219.505.714.714 0 111.219-.505z" fill="#2B2A29"/></svg>
